picto/motorcycle-right.svg

<svg class="color-immutable" width="24" height="24" viewBox="0 0 24 24" fill="none" xmlns="http://www.w3.org/2000/svg"><g clip-path="url(#a)"><path d="M0 22.5v-21C0 .675.675 0 1.5 0h21c.825 0 1.5.675 1.5 1.5v21c0 .825-.675 1.5-1.5 1.5h-21C.675 24 0 23.325 0 22.5Z" fill="#2D327D"/><path d="m17.478 12.223-.003.755a.298.298 0 0 1-.3.297h-.102l-.514-1.349h.616a.3.3 0 0 1 .303.297Z" fill="#fff"/><path d="M18.375 15.75c-.224 0-.441.028-.648.081l-2.071-5.438a.298.298 0 0 0-.282-.192V10.2h-1.986a.337.337 0 1 0 0 .675h1.809l1.97 5.17A2.624 2.624 0 0 0 18.376 21a2.625 2.625 0 0 0-.001-5.25Zm0 4.125a1.5 1.5 0 0 1-.803-2.766l.523 1.372a.3.3 0 0 0 .387.173.3.3 0 0 0 .174-.387l-.523-1.372a1.491 1.491 0 0 1 1.742 1.479 1.5 1.5 0 0 1-1.5 1.501ZM8.25 13.35a.675.675 0 0 0-.675-.675H3.75v.675h4.5Z" fill="#fff"/><path d="M15.274 11.925h-1.959a.674.674 0 0 0-.411.139L11.13 13.45a.886.886 0 0 1-.555.2H3.75v.9h1.875a3.823 3.823 0 0 1 3.812 3.525H8.232a2.625 2.625 0 1 0 0 .6h5.721a.61.61 0 0 0 .611-.611v-.021a3.821 3.821 0 0 1 1.904-2.984l-1.194-3.134Zm-9.649 7.95a1.5 1.5 0 1 1 1.47-1.8H5.626a.308.308 0 0 0-.158.046.3.3 0 0 0 .157.555h1.47a1.5 1.5 0 0 1-1.47 1.199Z" fill="#fff"/></g><defs><clipPath id="a"><path fill="#fff" d="M0 0h24v24H0z"/></clipPath></defs></svg>

<svg class="color-immutable" width="24" height="24" viewBox="0 0 24 24" fill="none" xmlns="http://www.w3.org/2000/svg"><path d="M0 22.5V1.5C0 0.675 0.675 0 1.5 0H22.5C23.325 0 24 0.675 24 1.5V22.5C24 23.325 23.325 24 22.5 24H1.5C0.675 24 0 23.325 0 22.5Z" fill="#2D327D"/><path d="M17.478 12.223L17.475 12.978C17.477 13.143 17.34 13.273 17.175 13.275H17.073L16.559 11.926H17.175C17.34 11.925 17.477 12.058 17.478 12.223Z" fill="white"/><path d="M18.375 15.75C18.151 15.75 17.934 15.778 17.727 15.831L15.656 10.393C15.61 10.273 15.496 10.2 15.374 10.201V10.2H13.388C13.201 10.2 13.05 10.351 13.05 10.537C13.05 10.724 13.201 10.875 13.388 10.875H15.197L17.167 16.045C16.326 16.482 15.751 17.361 15.751 18.375C15.751 19.825 16.926 21 18.376 21C19.826 21 21 19.825 21 18.375C21 16.925 19.825 15.75 18.375 15.75ZM18.375 19.875C17.546 19.875 16.875 19.204 16.875 18.375C16.875 17.842 17.153 17.375 17.572 17.109L18.095 18.481C18.141 18.601 18.254 18.674 18.375 18.674C18.41 18.674 18.447 18.668 18.482 18.654C18.637 18.595 18.715 18.422 18.656 18.267L18.133 16.895C18.212 16.882 18.293 16.874 18.375 16.874C19.204 16.874 19.875 17.545 19.875 18.374C19.875 19.203 19.204 19.875 18.375 19.875Z" fill="white"/><path d="M8.25 13.35C8.25 12.977 7.948 12.675 7.575 12.675H3.75V13.35H8.25Z" fill="white"/><path d="M15.274 11.925H13.315C13.16 11.925 13.018 11.977 12.904 12.064C12.411 12.449 11.27 13.34 11.13 13.45C10.948 13.594 10.753 13.65 10.575 13.65C9.044 13.65 3.75 13.65 3.75 13.65V14.55H5.625C7.637 14.55 9.285 16.103 9.437 18.075H8.232C8.083 16.767 6.973 15.75 5.625 15.75C4.175 15.75 3 16.925 3 18.375C3 19.825 4.175 21 5.625 21C6.973 21 8.083 19.984 8.232 18.675H9.975H13.953C14.291 18.675 14.564 18.401 14.564 18.064V18.043C14.674 16.765 15.411 15.667 16.468 15.059L15.274 11.925ZM5.625 19.875C4.796 19.875 4.125 19.204 4.125 18.375C4.125 17.546 4.796 16.875 5.625 16.875C6.351 16.875 6.956 17.39 7.095 18.075H5.626C5.571 18.076 5.516 18.091 5.468 18.121C5.327 18.208 5.282 18.392 5.37 18.534C5.425 18.623 5.521 18.676 5.625 18.676H7.095C6.956 19.36 6.351 19.875 5.625 19.875Z" fill="white"/></svg>
